dist/assets/img/services/image-2.svg

<svg width="52" height="38" viewBox="0 0 52 38" fill="none" xmlns="http://www.w3.org/2000/svg">
<path d="M27.1667 5.33335C27.1667 2.74335 29.2434 0.666687 31.8334 0.666687H40C42.5667 0.666687 44.6667 2.76669 44.6667 5.33335V10.3734C41.96 11.33 40 13.8967 40 16.93V21.6667H27.1667V5.33335ZM12 16.9067V21.6667H24.8334V5.33335C24.8334 2.74335 22.7567 0.666687 20.1667 0.666687H12C9.43337 0.666687 7.33337 2.76669 7.33337 5.33335V10.35C10.04 11.3067 12 13.8967 12 16.9067ZM46.2067 12.4034C43.92 12.7767 42.3334 14.9467 42.3334 17.28V24H9.66671V17C9.66671 15.7623 9.17504 14.5754 8.29987 13.7002C7.4247 12.825 6.23772 12.3334 5.00004 12.3334C3.76236 12.3334 2.57538 12.825 1.70021 13.7002C0.825039 14.5754 0.333374 15.7623 0.333374 17V28.6667C0.333374 31.2334 2.43337 33.3334 5.00004 33.3334V38H9.66671V33.3334H42.3334V38H47V33.3334C49.5667 33.3334 51.6667 31.2334 51.6667 28.6667V17C51.6667 14.1767 49.1234 11.9134 46.2067 12.4034Z" fill="#434343"/>
</svg>

<svg width="52" height="38" fill="none" xmlns="http://www.w3.org/2000/svg"><path d="M27.167 5.333A4.65 4.65 0 0131.833.667H40a4.68 4.68 0 014.667 4.666v5.04C41.96 11.33 40 13.897 40 16.93v4.737H27.167V5.333zM12 16.907v4.76h12.833V5.333A4.65 4.65 0 0020.167.667H12a4.68 4.68 0 00-4.667 4.666v5.017C10.04 11.307 12 13.897 12 16.907zm34.207-4.504c-2.287.374-3.874 2.544-3.874 4.877V24H9.667v-7a4.667 4.667 0 00-9.334 0v11.667A4.68 4.68 0 005 33.333V38h4.667v-4.667h32.666V38H47v-4.667a4.68 4.68 0 004.667-4.666V17c0-2.823-2.544-5.087-5.46-4.597z" fill="#434343"/></svg>
